assets/home-tab/Asset/smartemi.svg

<svg width="73" height="17" viewBox="0 0 73 17" fill="none" xmlns="http://www.w3.org/2000/svg">
<path d="M5.06104 14.1465C4.14795 14.1465 3.35449 14.0098 2.68066 13.7363C2.00684 13.458 1.48193 13.043 1.10596 12.4912C0.72998 11.9346 0.537109 11.2363 0.527344 10.3965H3.01025C3.02979 10.748 3.125 11.0435 3.2959 11.2827C3.4668 11.522 3.70117 11.7026 3.99902 11.8247C4.29688 11.9419 4.64111 12.0005 5.03174 12.0005C5.39307 12.0005 5.70312 11.9517 5.96191 11.854C6.2207 11.7563 6.41846 11.6196 6.55518 11.4438C6.69678 11.2681 6.76758 11.0654 6.76758 10.8359C6.76758 10.626 6.7041 10.4478 6.57715 10.3013C6.4502 10.1499 6.25488 10.0181 5.99121 9.90576C5.73242 9.79346 5.40039 9.69336 4.99512 9.60547L3.84521 9.3418C2.89795 9.12695 2.15332 8.77539 1.61133 8.28711C1.07422 7.79395 0.805664 7.13721 0.805664 6.31689C0.805664 5.64307 0.98877 5.05225 1.35498 4.54443C1.72119 4.03662 2.22168 3.64355 2.85645 3.36523C3.49609 3.08203 4.23096 2.94043 5.06104 2.94043C5.90576 2.94043 6.63818 3.08447 7.2583 3.37256C7.87842 3.65576 8.35938 4.05371 8.70117 4.56641C9.04785 5.0791 9.22363 5.6748 9.22852 6.35352H6.74561C6.71143 5.94824 6.55029 5.63574 6.26221 5.41602C5.97412 5.19141 5.57129 5.0791 5.05371 5.0791C4.71191 5.0791 4.42383 5.12549 4.18945 5.21826C3.95508 5.31104 3.77686 5.43799 3.65479 5.59912C3.5376 5.76025 3.479 5.94336 3.479 6.14844C3.479 6.36816 3.54492 6.55615 3.67676 6.7124C3.80859 6.86377 3.99658 6.99072 4.24072 7.09326C4.48486 7.1958 4.77051 7.28369 5.09766 7.35693L6.04248 7.57666C6.57471 7.68896 7.0459 7.84277 7.45605 8.03809C7.87109 8.22852 8.22266 8.45801 8.51074 8.72656C8.79883 8.99023 9.01611 9.29785 9.1626 9.64941C9.30908 10.001 9.38232 10.394 9.38232 10.8286C9.38232 11.5171 9.20898 12.1104 8.8623 12.6084C8.52051 13.1064 8.02734 13.4873 7.38281 13.751C6.73828 14.0146 5.96436 14.1465 5.06104 14.1465ZM10.752 14V5.8335H13.1104L13.2495 7.94287H13.0737C13.2007 7.41553 13.3887 6.99072 13.6377 6.66846C13.8867 6.34131 14.1797 6.10205 14.5166 5.95068C14.8535 5.79932 15.2075 5.72363 15.5786 5.72363C16.1597 5.72363 16.6309 5.91162 16.9922 6.2876C17.3584 6.65869 17.6367 7.2666 17.8271 8.11133H17.5488C17.6758 7.54492 17.8809 7.08594 18.1641 6.73438C18.4473 6.38281 18.7769 6.12646 19.1528 5.96533C19.5337 5.8042 19.9316 5.72363 20.3467 5.72363C20.8545 5.72363 21.3062 5.83594 21.7017 6.06055C22.0972 6.28027 22.4072 6.59766 22.6318 7.0127C22.8564 7.42285 22.9688 7.91846 22.9688 8.49951V14H20.4126V9.0708C20.4126 8.66064 20.3027 8.34814 20.083 8.1333C19.8682 7.91846 19.5947 7.81104 19.2627 7.81104C19.0186 7.81104 18.8086 7.86475 18.6328 7.97217C18.457 8.07959 18.3203 8.23096 18.2227 8.42627C18.1299 8.6167 18.0835 8.84375 18.0835 9.10742V14H15.6372V9.0415C15.6372 8.66064 15.5322 8.36035 15.3223 8.14062C15.1123 7.9209 14.8364 7.81104 14.4946 7.81104C14.2603 7.81104 14.0527 7.86475 13.8721 7.97217C13.6963 8.07471 13.5571 8.22607 13.4546 8.42627C13.3569 8.62646 13.3081 8.86816 13.3081 9.15137V14H10.752ZM26.9312 14.1465C26.4087 14.1465 25.9448 14.0586 25.5396 13.8828C25.1343 13.7021 24.8145 13.4336 24.5801 13.0771C24.3506 12.7207 24.2358 12.2715 24.2358 11.7295C24.2358 11.2803 24.3164 10.8994 24.4775 10.5869C24.6387 10.2744 24.8584 10.0229 25.1367 9.83252C25.4199 9.63721 25.7446 9.48828 26.1108 9.38574C26.4771 9.2832 26.8677 9.21484 27.2827 9.18066C27.7515 9.13672 28.125 9.09277 28.4033 9.04883C28.6865 9.00488 28.894 8.93652 29.0259 8.84375C29.1577 8.75098 29.2236 8.62158 29.2236 8.45557V8.42627C29.2236 8.23584 29.1797 8.07715 29.0918 7.9502C29.0039 7.81836 28.877 7.71826 28.7109 7.6499C28.5449 7.58154 28.3447 7.54736 28.1104 7.54736C27.876 7.54736 27.6685 7.58154 27.4878 7.6499C27.3071 7.71826 27.1582 7.81592 27.041 7.94287C26.9238 8.06982 26.8433 8.21875 26.7993 8.38965L24.4775 8.104C24.585 7.63037 24.7949 7.21777 25.1074 6.86621C25.4199 6.50977 25.8301 6.23145 26.3379 6.03125C26.8506 5.83105 27.4512 5.73096 28.1396 5.73096C28.6475 5.73096 29.1211 5.79199 29.5605 5.91406C30.0049 6.03125 30.3906 6.20703 30.7178 6.44141C31.0498 6.6709 31.3086 6.95654 31.4941 7.29834C31.6797 7.63525 31.7725 8.02344 31.7725 8.46289V14H29.3628V12.8574H29.3042C29.1528 13.1357 28.9648 13.3701 28.7402 13.5605C28.5156 13.751 28.252 13.8975 27.9492 14C27.6514 14.0977 27.312 14.1465 26.9312 14.1465ZM27.7075 12.4546C27.9956 12.4546 28.2544 12.3984 28.4839 12.2861C28.7183 12.1689 28.9038 12.0078 29.0405 11.8027C29.1772 11.5977 29.2456 11.3608 29.2456 11.0923V10.3159C29.1724 10.3501 29.0796 10.3843 28.9673 10.4185C28.8599 10.4526 28.7402 10.4844 28.6084 10.5137C28.4814 10.543 28.3521 10.5674 28.2202 10.5869C28.0884 10.6064 27.9614 10.626 27.8394 10.6455C27.5903 10.6797 27.3779 10.7407 27.2021 10.8286C27.0264 10.9116 26.8921 11.019 26.7993 11.1509C26.7065 11.2778 26.6602 11.4316 26.6602 11.6123C26.6602 11.7979 26.7041 11.9541 26.792 12.0811C26.8848 12.2031 27.0093 12.2959 27.1655 12.3594C27.3218 12.4229 27.5024 12.4546 27.7075 12.4546ZM33.4424 14V5.8335H35.918V7.32031H36.0059C36.1523 6.7832 36.394 6.38525 36.731 6.12646C37.0679 5.86768 37.4634 5.73828 37.9175 5.73828C38.0347 5.73828 38.1567 5.74561 38.2837 5.76025C38.4155 5.7749 38.5352 5.79688 38.6426 5.82617V8.03809C38.5205 7.99902 38.3594 7.96973 38.1592 7.9502C37.9639 7.92578 37.7856 7.91357 37.6245 7.91357C37.3169 7.91357 37.0386 7.98438 36.7896 8.12598C36.5405 8.2627 36.3452 8.45312 36.2036 8.69727C36.0669 8.94141 35.9985 9.22949 35.9985 9.56152V14H33.4424ZM44.4727 5.8335V7.73779H39.3457V5.8335H44.4727ZM40.4443 3.87793H42.9932V11.4878C42.9932 11.7075 43.0444 11.8711 43.147 11.9785C43.2495 12.0811 43.418 12.1323 43.6523 12.1323C43.7451 12.1323 43.8696 12.1226 44.0259 12.103C44.187 12.0786 44.3018 12.0591 44.3701 12.0444L44.6851 13.9121C44.4067 13.9902 44.1333 14.0415 43.8647 14.0659C43.5962 14.0952 43.3398 14.1099 43.0957 14.1099C42.2266 14.1099 41.5674 13.9072 41.1182 13.502C40.6689 13.0967 40.4443 12.5059 40.4443 11.7295V3.87793Z" fill="#004B8D"/>
<path d="M45.8423 14V3.08691H53.4448V5.20361H48.4277V7.45215H53.0493V9.5249H48.4277V11.8833H53.4448V14H45.8423ZM54.9976 14V3.08691H59.0186L60.4102 7.33496C60.4883 7.59863 60.5762 7.94287 60.6738 8.36768C60.7764 8.7876 60.8789 9.23926 60.9814 9.72266C61.084 10.2061 61.1792 10.6748 61.2671 11.1289C61.355 11.5781 61.4258 11.9639 61.4795 12.2861H60.9741C61.0278 11.9688 61.0962 11.5854 61.1792 11.1362C61.2671 10.6821 61.3623 10.2134 61.4648 9.72998C61.5674 9.24658 61.6675 8.79248 61.7651 8.36768C61.8677 7.94287 61.958 7.59863 62.0361 7.33496L63.4058 3.08691H67.4341V14H64.834V9.29785C64.834 9.05371 64.8389 8.74121 64.8486 8.36035C64.8584 7.97949 64.8706 7.56445 64.8853 7.11523C64.8999 6.66602 64.9121 6.21436 64.9219 5.76025C64.9316 5.30127 64.9365 4.87402 64.9365 4.47852H65.105C65.0122 4.91309 64.9072 5.3623 64.79 5.82617C64.6777 6.28516 64.563 6.73438 64.4458 7.17383C64.3335 7.61328 64.2236 8.01611 64.1162 8.38232C64.0137 8.74854 63.9258 9.05371 63.8525 9.29785L62.2998 14H60.1392L58.5645 9.29785C58.4912 9.05371 58.4009 8.75098 58.2935 8.38965C58.186 8.02344 58.0737 7.62305 57.9565 7.18848C57.8394 6.74902 57.7222 6.29736 57.605 5.8335C57.4878 5.36963 57.3804 4.91797 57.2827 4.47852H57.4805C57.4854 4.86426 57.4927 5.28418 57.5024 5.73828C57.5122 6.19238 57.522 6.64648 57.5317 7.10059C57.5464 7.5498 57.5586 7.96729 57.5684 8.35303C57.583 8.73389 57.5903 9.04883 57.5903 9.29785V14H54.9976ZM71.7041 3.08691V14H69.1187V3.08691H71.7041Z" fill="#FF0000"/>
</svg>

<svg xmlns="http://www.w3.org/2000/svg" width="73" height="17" fill="none" viewBox="0 0 73 17"><path fill="#004b8d" d="M5.061 14.147q-1.37 0-2.38-.41-1.012-.418-1.575-1.246-.564-.835-.579-2.094H3.01q.03.526.286.886.256.359.703.542.447.176 1.033.176.542 0 .93-.147.388-.146.593-.41a.94.94 0 0 0 .213-.608.8.8 0 0 0-.19-.535q-.192-.227-.587-.395a5.5 5.5 0 0 0-.996-.3l-1.15-.264q-1.42-.323-2.234-1.055-.805-.74-.805-1.97 0-1.011.549-1.773.55-.76 1.501-1.179.96-.425 2.205-.425 1.267 0 2.197.433.93.424 1.443 1.193.52.77.528 1.788H6.746q-.052-.609-.484-.938-.431-.337-1.208-.337-.513 0-.865.14-.351.138-.534.38a.9.9 0 0 0-.176.55q0 .33.198.563.198.228.564.381.366.154.857.264l.944.22a6.3 6.3 0 0 1 1.414.461q.623.285 1.055.689.432.394.652.922t.22 1.18q0 1.032-.52 1.78-.514.746-1.48 1.142-.968.396-2.322.396M10.752 14V5.834h2.358l.14 2.109h-.176q.19-.79.564-1.275.373-.49.879-.717.505-.228 1.062-.227.87 0 1.413.564.55.556.835 1.823h-.278q.19-.849.615-1.377a2.56 2.56 0 0 1 .989-.769q.57-.24 1.194-.241.762 0 1.355.337.592.33.93.952.336.615.337 1.487V14h-2.556V9.07q0-.615-.33-.937a1.1 1.1 0 0 0-.82-.322q-.366 0-.63.161a1.1 1.1 0 0 0-.41.454 1.54 1.54 0 0 0-.14.681V14h-2.446V9.041q0-.57-.315-.9t-.827-.33q-.352 0-.623.161a1.1 1.1 0 0 0-.417.454 1.64 1.64 0 0 0-.147.725V14zm16.18.146q-.785 0-1.392-.263a2.2 2.2 0 0 1-.96-.806q-.344-.534-.344-1.348 0-.674.241-1.142.242-.47.66-.754a3.2 3.2 0 0 1 .974-.447 6 6 0 0 1 1.172-.205 19 19 0 0 0 1.12-.132q.425-.066.623-.205a.45.45 0 0 0 .198-.388v-.03q0-.285-.132-.476a.8.8 0 0 0-.381-.3 1.6 1.6 0 0 0-.6-.103q-.352 0-.623.103a1.15 1.15 0 0 0-.447.293 1 1 0 0 0-.242.447l-2.322-.286q.162-.71.63-1.238.47-.535 1.23-.835.77-.3 1.803-.3.762 0 1.42.183.667.176 1.158.527.497.345.776.857.279.505.279 1.165V14h-2.41v-1.143h-.059q-.227.418-.564.704-.337.285-.79.439a3.3 3.3 0 0 1-1.019.146m.776-1.691q.432 0 .776-.169.352-.176.556-.483a1.25 1.25 0 0 0 .206-.71v-.777a2 2 0 0 1-.279.102 5 5 0 0 1-.747.168l-.38.06q-.374.051-.638.183a1 1 0 0 0-.403.322.76.76 0 0 0-.139.461q0 .278.132.47a.87.87 0 0 0 .373.277q.235.096.543.096M33.442 14V5.834h2.476V7.32h.088q.22-.805.725-1.194a1.9 1.9 0 0 1 1.186-.388q.177 0 .367.022.197.022.359.066v2.212a2.4 2.4 0 0 0-.484-.088 4 4 0 0 0-.535-.036q-.46 0-.834.212-.375.205-.586.571a1.74 1.74 0 0 0-.206.865V14zm11.03-8.166v1.904h-5.126V5.833zm-4.028-1.956h2.55v7.61q0 .33.153.49.154.154.505.154.14 0 .374-.029a7 7 0 0 0 .344-.059l.315 1.868q-.418.117-.82.154a7 7 0 0 1-.77.044q-1.303 0-1.977-.608-.674-.607-.674-1.773z"/><path fill="red" d="M45.842 14V3.087h7.603v2.117h-5.017v2.248h4.621v2.073h-4.621v2.358h5.017V14zm9.156 0V3.087h4.02l1.392 4.248q.117.396.264 1.033.153.63.307 1.355t.286 1.406q.132.675.212 1.157h-.505q.08-.475.205-1.15a81 81 0 0 1 .586-2.768q.154-.638.271-1.033l1.37-4.248h4.028V14h-2.6V9.298q0-.366.015-.938.015-.57.036-1.245.022-.673.037-1.355.014-.688.014-1.281h.169q-.14.651-.315 1.347a67 67 0 0 1-.344 1.348q-.168.66-.33 1.208-.153.55-.264.916L62.3 14h-2.16l-1.575-4.702-.271-.908a57 57 0 0 1-.337-1.202q-.177-.658-.352-1.354a49 49 0 0 1-.322-1.355h.197q.008.577.022 1.26l.03 1.362q.022.673.036 1.252.022.57.022.945V14zM71.704 3.087V14H69.12V3.087z"/></svg>
